apps/www/public/images/launchweek/11/days/d3-light.svg

<svg width="764" height="208" viewBox="0 0 764 208" fill="none" xmlns="http://www.w3.org/2000/svg">
<g clip-path="url(#clip0_731_70073)">
<rect width="764" height="208" fill="#FCFCFC"/>
<path d="M590.341 104C590.341 122.151 575.627 136.865 557.476 136.865C539.325 136.865 524.61 122.151 524.61 104C524.61 85.849 539.325 71.1348 557.476 71.1348C575.627 71.1348 590.341 85.849 590.341 104Z" stroke="url(#paint0_linear_731_70073)" stroke-width="0.5" stroke-dasharray="0.5 1"/>
<path d="M604.245 104C604.245 129.83 583.305 150.769 557.476 150.769C531.646 150.769 510.707 129.83 510.707 104C510.707 78.1702 531.646 57.231 557.476 57.231C583.305 57.231 604.245 78.1702 604.245 104Z" stroke="url(#paint1_linear_731_70073)" stroke-width="0.5" stroke-dasharray="0.5 1"/>
<path d="M617.975 104C617.975 137.413 590.888 164.499 557.476 164.499C524.063 164.499 496.977 137.413 496.977 104C496.977 70.5873 524.063 43.501 557.476 43.501C590.888 43.501 617.975 70.5873 617.975 104Z" stroke="url(#paint2_linear_731_70073)" stroke-width="0.5" stroke-dasharray="0.5 1"/>
<path d="M631.705 104C631.705 144.996 598.471 178.229 557.476 178.229C516.48 178.229 483.247 144.996 483.247 104C483.247 63.0045 516.48 29.771 557.476 29.771C598.471 29.771 631.705 63.0045 631.705 104Z" stroke="url(#paint3_linear_731_70073)" stroke-width="0.5" stroke-dasharray="0.5 1"/>
<path d="M644.976 104C644.976 152.325 605.801 191.5 557.476 191.5C509.151 191.5 469.976 152.325 469.976 104C469.976 55.6751 509.151 16.5 557.476 16.5C605.801 16.5 644.976 55.6751 644.976 104Z" stroke="url(#paint4_linear_731_70073)" stroke-width="0.5" stroke-dasharray="0.5 1"/>
<path d="M657.944 104C657.944 159.487 612.963 204.468 557.476 204.468C501.988 204.468 457.007 159.487 457.007 104C457.007 48.5129 501.988 3.53174 557.476 3.53174C612.963 3.53174 657.944 48.5129 657.944 104Z" stroke="url(#paint5_linear_731_70073)" stroke-width="0.5" stroke-dasharray="0.5 1"/>
<path d="M671.369 104C671.369 166.901 620.377 217.893 557.476 217.893C494.574 217.893 443.583 166.901 443.583 104C443.583 41.0986 494.574 -9.89307 557.476 -9.89307C620.377 -9.89307 671.369 41.0986 671.369 104Z" stroke="url(#paint6_linear_731_70073)" stroke-width="0.5" stroke-dasharray="0.5 1"/>
<path d="M685.708 104C685.708 174.821 628.297 232.233 557.476 232.233C486.655 232.233 429.243 174.821 429.243 104C429.243 33.1789 486.655 -24.2329 557.476 -24.2329C628.297 -24.2329 685.708 33.1789 685.708 104Z" stroke="url(#paint7_linear_731_70073)" stroke-width="0.5" stroke-dasharray="0.5 1"/>
<path d="M700.354 104C700.354 182.909 636.385 246.878 557.476 246.878C478.566 246.878 414.598 182.909 414.598 104C414.598 25.0907 478.566 -38.8779 557.476 -38.8779C636.385 -38.8779 700.354 25.0907 700.354 104Z" stroke="url(#paint8_linear_731_70073)" stroke-width="0.5" stroke-dasharray="0.5 1"/>
<path d="M714.389 104C714.389 190.661 644.136 260.913 557.476 260.913C470.815 260.913 400.562 190.661 400.562 104C400.562 17.3393 470.815 -52.9131 557.476 -52.9131C644.136 -52.9131 714.389 17.3393 714.389 104Z" stroke="url(#paint9_linear_731_70073)" stroke-width="0.5" stroke-dasharray="0.5 1"/>
<path d="M730.56 104C730.56 199.592 653.067 277.084 557.476 277.084C461.884 277.084 384.392 199.592 384.392 104C384.392 8.40836 461.884 -69.084 557.476 -69.084C653.067 -69.084 730.56 8.40836 730.56 104Z" stroke="url(#paint10_linear_731_70073)" stroke-width="0.5" stroke-dasharray="0.5 1"/>
<path d="M746.425 104C746.425 208.354 661.829 292.949 557.476 292.949C453.122 292.949 368.526 208.354 368.526 104C368.526 -0.353775 453.122 -84.9492 557.476 -84.9492C661.829 -84.9492 746.425 -0.353775 746.425 104Z" stroke="url(#paint11_linear_731_70073)" stroke-width="0.5" stroke-dasharray="0.5 1"/>
<path d="M762.727 104C762.727 217.357 670.833 309.251 557.476 309.251C444.119 309.251 352.225 217.357 352.225 104C352.225 -9.35699 444.119 -101.251 557.476 -101.251C670.833 -101.251 762.727 -9.35699 762.727 104Z" stroke="url(#paint12_linear_731_70073)" stroke-width="0.5" stroke-dasharray="0.5 1"/>
<path d="M780.292 104C780.292 227.058 680.534 326.816 557.476 326.816C434.417 326.816 334.659 227.058 334.659 104C334.659 -19.0581 434.417 -118.816 557.476 -118.816C680.534 -118.816 780.292 -19.0581 780.292 104Z" stroke="url(#paint13_linear_731_70073)" stroke-width="0.5" stroke-dasharray="0.5 1"/>
<path d="M798.711 104C798.711 237.231 690.706 345.236 557.476 345.236C424.245 345.236 316.24 237.231 316.24 104C316.24 -29.2309 424.245 -137.236 557.476 -137.236C690.706 -137.236 798.711 -29.2309 798.711 104Z" stroke="url(#paint14_linear_731_70073)" stroke-width="0.5" stroke-dasharray="0.5 1"/>
<path d="M814.685 104C814.685 246.053 699.528 361.209 557.476 361.209C415.423 361.209 300.266 246.053 300.266 104C300.266 -38.0529 415.423 -153.209 557.476 -153.209C699.528 -153.209 814.685 -38.0529 814.685 104Z" stroke="url(#paint15_linear_731_70073)" stroke-width="0.5" stroke-dasharray="0.5 1"/>
<rect x="523.701" y="70.2257" width="67.5486" height="67.5486" rx="33.7743" fill="#FCFCFC" stroke="#DFDFDF" stroke-width="0.5"/>
<circle cx="557.5" cy="104" r="19.8044" fill="#B2B2B2"/>
<circle cx="557.476" cy="104" r="15.25" fill="#525252"/>
<path fill-rule="evenodd" clip-rule="evenodd" d="M576.7 104C576.7 114.604 568.104 123.2 557.5 123.2C546.896 123.2 538.3 114.604 538.3 104C538.3 93.3962 546.896 84.8 557.5 84.8C568.104 84.8 576.7 93.3962 576.7 104ZM562.3 96.8C562.3 99.451 560.151 101.6 557.5 101.6C554.849 101.6 552.7 99.451 552.7 96.8C552.7 94.1491 554.849 92 557.5 92C560.151 92 562.3 94.1491 562.3 96.8ZM557.5 106.4C552.658 106.4 548.486 109.268 546.589 113.398C549.23 116.461 553.138 118.4 557.5 118.4C561.862 118.4 565.77 116.461 568.411 113.398C566.514 109.268 562.342 106.4 557.5 106.4Z" fill="#EDEDED"/>
<rect x="569.25" y="64.1788" width="136" height="33.2" rx="5.75" fill="#FCFCFC" stroke="#B2B2B2" stroke-width="0.5"/>
<path d="M584.284 82.9528C583.57 82.9528 583.063 82.7928 582.764 82.4728C582.476 82.1528 582.332 81.7582 582.332 81.2888V80.8408C582.332 80.3715 582.476 79.9768 582.764 79.6568C583.063 79.3368 583.57 79.1768 584.284 79.1768C584.999 79.1768 585.5 79.3368 585.788 79.6568C586.087 79.9768 586.236 80.3715 586.236 80.8408V81.2888C586.236 81.7582 586.087 82.1528 585.788 82.4728C585.5 82.7928 584.999 82.9528 584.284 82.9528ZM594.878 82.9528C594.163 82.9528 593.657 82.7928 593.358 82.4728C593.07 82.1528 592.926 81.7582 592.926 81.2888V80.8408C592.926 80.3715 593.07 79.9768 593.358 79.6568C593.657 79.3368 594.163 79.1768 594.878 79.1768C595.593 79.1768 596.094 79.3368 596.382 79.6568C596.681 79.9768 596.83 80.3715 596.83 80.8408V81.2888C596.83 81.7582 596.681 82.1528 596.382 82.4728C596.094 82.7928 595.593 82.9528 594.878 82.9528ZM605.472 82.9528C604.757 82.9528 604.251 82.7928 603.952 82.4728C603.664 82.1528 603.52 81.7582 603.52 81.2888V80.8408C603.52 80.3715 603.664 79.9768 603.952 79.6568C604.251 79.3368 604.757 79.1768 605.472 79.1768C606.187 79.1768 606.688 79.3368 606.976 79.6568C607.275 79.9768 607.424 80.3715 607.424 80.8408V81.2888C607.424 81.7582 607.275 82.1528 606.976 82.4728C606.688 82.7928 606.187 82.9528 605.472 82.9528ZM616.066 82.9528C615.351 82.9528 614.844 82.7928 614.546 82.4728C614.258 82.1528 614.114 81.7582 614.114 81.2888V80.8408C614.114 80.3715 614.258 79.9768 614.546 79.6568C614.844 79.3368 615.351 79.1768 616.066 79.1768C616.78 79.1768 617.282 79.3368 617.57 79.6568C617.868 79.9768 618.018 80.3715 618.018 80.8408V81.2888C618.018 81.7582 617.868 82.1528 617.57 82.4728C617.282 82.7928 616.78 82.9528 616.066 82.9528ZM626.659 82.9528C625.945 82.9528 625.438 82.7928 625.139 82.4728C624.851 82.1528 624.707 81.7582 624.707 81.2888V80.8408C624.707 80.3715 624.851 79.9768 625.139 79.6568C625.438 79.3368 625.945 79.1768 626.659 79.1768C627.374 79.1768 627.875 79.3368 628.163 79.6568C628.462 79.9768 628.611 80.3715 628.611 80.8408V81.2888C628.611 81.7582 628.462 82.1528 628.163 82.4728C627.875 82.7928 627.374 82.9528 626.659 82.9528ZM637.253 82.9528C636.538 82.9528 636.032 82.7928 635.733 82.4728C635.445 82.1528 635.301 81.7582 635.301 81.2888V80.8408C635.301 80.3715 635.445 79.9768 635.733 79.6568C636.032 79.3368 636.538 79.1768 637.253 79.1768C637.968 79.1768 638.469 79.3368 638.757 79.6568C639.056 79.9768 639.205 80.3715 639.205 80.8408V81.2888C639.205 81.7582 639.056 82.1528 638.757 82.4728C638.469 82.7928 637.968 82.9528 637.253 82.9528ZM647.847 82.9528C647.132 82.9528 646.626 82.7928 646.327 82.4728C646.039 82.1528 645.895 81.7582 645.895 81.2888V80.8408C645.895 80.3715 646.039 79.9768 646.327 79.6568C646.626 79.3368 647.132 79.1768 647.847 79.1768C648.562 79.1768 649.063 79.3368 649.351 79.6568C649.65 79.9768 649.799 80.3715 649.799 80.8408V81.2888C649.799 81.7582 649.65 82.1528 649.351 82.4728C649.063 82.7928 648.562 82.9528 647.847 82.9528ZM658.441 82.9528C657.726 82.9528 657.219 82.7928 656.921 82.4728C656.633 82.1528 656.489 81.7582 656.489 81.2888V80.8408C656.489 80.3715 656.633 79.9768 656.921 79.6568C657.219 79.3368 657.726 79.1768 658.441 79.1768C659.155 79.1768 659.657 79.3368 659.945 79.6568C660.243 79.9768 660.393 80.3715 660.393 80.8408V81.2888C660.393 81.7582 660.243 82.1528 659.945 82.4728C659.657 82.7928 659.155 82.9528 658.441 82.9528ZM669.034 82.9528C668.32 82.9528 667.813 82.7928 667.514 82.4728C667.226 82.1528 667.082 81.7582 667.082 81.2888V80.8408C667.082 80.3715 667.226 79.9768 667.514 79.6568C667.813 79.3368 668.32 79.1768 669.034 79.1768C669.749 79.1768 670.25 79.3368 670.538 79.6568C670.837 79.9768 670.986 80.3715 670.986 80.8408V81.2888C670.986 81.7582 670.837 82.1528 670.538 82.4728C670.25 82.7928 669.749 82.9528 669.034 82.9528ZM679.628 82.9528C678.913 82.9528 678.407 82.7928 678.108 82.4728C677.82 82.1528 677.676 81.7582 677.676 81.2888V80.8408C677.676 80.3715 677.82 79.9768 678.108 79.6568C678.407 79.3368 678.913 79.1768 679.628 79.1768C680.343 79.1768 680.844 79.3368 681.132 79.6568C681.431 79.9768 681.58 80.3715 681.58 80.8408V81.2888C681.58 81.7582 681.431 82.1528 681.132 82.4728C680.844 82.7928 680.343 82.9528 679.628 82.9528ZM690.222 82.9528C689.507 82.9528 689.001 82.7928 688.702 82.4728C688.414 82.1528 688.27 81.7582 688.27 81.2888V80.8408C688.27 80.3715 688.414 79.9768 688.702 79.6568C689.001 79.3368 689.507 79.1768 690.222 79.1768C690.937 79.1768 691.438 79.3368 691.726 79.6568C692.025 79.9768 692.174 80.3715 692.174 80.8408V81.2888C692.174 81.7582 692.025 82.1528 691.726 82.4728C691.438 82.7928 690.937 82.9528 690.222 82.9528Z" fill="#171717"/>
</g>
<defs>
<linearGradient id="paint0_linear_731_70073" x1="626.508" y1="24.0977" x2="444.463" y2="24.0977" gradientUnits="userSpaceOnUse">
<stop stop-color="#575E61"/>
<stop offset="1" stop-color="#575E61" stop-opacity="0"/>
</linearGradient>
<linearGradient id="paint1_linear_731_70073" x1="626.508" y1="24.0977" x2="444.463" y2="24.0977" gradientUnits="userSpaceOnUse">
<stop stop-color="#575E61"/>
<stop offset="1" stop-color="#575E61" stop-opacity="0"/>
</linearGradient>
<linearGradient id="paint2_linear_731_70073" x1="626.508" y1="24.0977" x2="444.463" y2="24.0977" gradientUnits="userSpaceOnUse">
<stop stop-color="#575E61"/>
<stop offset="1" stop-color="#575E61" stop-opacity="0"/>
</linearGradient>
<linearGradient id="paint3_linear_731_70073" x1="626.508" y1="24.0977" x2="444.463" y2="24.0977" gradientUnits="userSpaceOnUse">
<stop stop-color="#575E61"/>
<stop offset="1" stop-color="#575E61" stop-opacity="0"/>
</linearGradient>
<linearGradient id="paint4_linear_731_70073" x1="626.508" y1="24.0977" x2="444.463" y2="24.0977" gradientUnits="userSpaceOnUse">
<stop stop-color="#575E61"/>
<stop offset="1" stop-color="#575E61" stop-opacity="0"/>
</linearGradient>
<linearGradient id="paint5_linear_731_70073" x1="626.508" y1="24.0977" x2="444.463" y2="24.0977" gradientUnits="userSpaceOnUse">
<stop stop-color="#575E61"/>
<stop offset="1" stop-color="#575E61" stop-opacity="0"/>
</linearGradient>
<linearGradient id="paint6_linear_731_70073" x1="626.508" y1="24.0977" x2="444.463" y2="24.0977" gradientUnits="userSpaceOnUse">
<stop stop-color="#575E61"/>
<stop offset="1" stop-color="#575E61" stop-opacity="0"/>
</linearGradient>
<linearGradient id="paint7_linear_731_70073" x1="626.508" y1="24.0977" x2="444.463" y2="24.0977" gradientUnits="userSpaceOnUse">
<stop stop-color="#575E61"/>
<stop offset="1" stop-color="#575E61" stop-opacity="0"/>
</linearGradient>
<linearGradient id="paint8_linear_731_70073" x1="626.508" y1="24.0977" x2="444.463" y2="24.0977" gradientUnits="userSpaceOnUse">
<stop stop-color="#575E61"/>
<stop offset="1" stop-color="#575E61" stop-opacity="0"/>
</linearGradient>
<linearGradient id="paint9_linear_731_70073" x1="626.508" y1="24.0977" x2="444.463" y2="24.0977" gradientUnits="userSpaceOnUse">
<stop stop-color="#575E61"/>
<stop offset="1" stop-color="#575E61" stop-opacity="0"/>
</linearGradient>
<linearGradient id="paint10_linear_731_70073" x1="626.508" y1="24.0977" x2="444.463" y2="24.0977" gradientUnits="userSpaceOnUse">
<stop stop-color="#575E61"/>
<stop offset="1" stop-color="#575E61" stop-opacity="0"/>
</linearGradient>
<linearGradient id="paint11_linear_731_70073" x1="626.508" y1="24.0977" x2="444.463" y2="24.0977" gradientUnits="userSpaceOnUse">
<stop stop-color="#575E61"/>
<stop offset="1" stop-color="#575E61" stop-opacity="0"/>
</linearGradient>
<linearGradient id="paint12_linear_731_70073" x1="626.508" y1="24.0977" x2="444.463" y2="24.0977" gradientUnits="userSpaceOnUse">
<stop stop-color="#575E61"/>
<stop offset="1" stop-color="#575E61" stop-opacity="0"/>
</linearGradient>
<linearGradient id="paint13_linear_731_70073" x1="626.508" y1="24.0977" x2="444.463" y2="24.0977" gradientUnits="userSpaceOnUse">
<stop stop-color="#575E61"/>
<stop offset="1" stop-color="#575E61" stop-opacity="0"/>
</linearGradient>
<linearGradient id="paint14_linear_731_70073" x1="626.508" y1="24.0977" x2="444.463" y2="24.0977" gradientUnits="userSpaceOnUse">
<stop stop-color="#575E61"/>
<stop offset="1" stop-color="#575E61" stop-opacity="0"/>
</linearGradient>
<linearGradient id="paint15_linear_731_70073" x1="626.508" y1="24.0977" x2="444.463" y2="24.0977" gradientUnits="userSpaceOnUse">
<stop stop-color="#575E61"/>
<stop offset="1" stop-color="#575E61" stop-opacity="0"/>
</linearGradient>
<clipPath id="clip0_731_70073">
<rect width="764" height="208" fill="white"/>
</clipPath>
</defs>
</svg>

<svg xmlns="http://www.w3.org/2000/svg" width="764" height="208" fill="none" viewBox="0 0 764 208"><g clip-path="url(#a)"><path fill="#fcfcfc" d="M0 0h764v208H0z"/><path stroke="url(#b)" stroke-dasharray="0.5 1" stroke-width=".5" d="M590.341 104c0 18.151-14.714 32.865-32.865 32.865S524.61 122.151 524.61 104s14.715-32.865 32.866-32.865S590.341 85.849 590.341 104Z"/><path stroke="url(#c)" stroke-dasharray="0.5 1" stroke-width=".5" d="M604.245 104c0 25.83-20.94 46.769-46.769 46.769-25.83 0-46.769-20.939-46.769-46.769s20.939-46.769 46.769-46.769 46.769 20.94 46.769 46.769Z"/><path stroke="url(#d)" stroke-dasharray="0.5 1" stroke-width=".5" d="M617.975 104c0 33.413-27.087 60.499-60.499 60.499S496.977 137.413 496.977 104s27.086-60.499 60.499-60.499c33.412 0 60.499 27.086 60.499 60.499Z"/><path stroke="url(#e)" stroke-dasharray="0.5 1" stroke-width=".5" d="M631.705 104c0 40.996-33.234 74.229-74.229 74.229-40.996 0-74.229-33.233-74.229-74.229 0-40.995 33.233-74.229 74.229-74.229 40.995 0 74.229 33.234 74.229 74.229Z"/><path stroke="url(#f)" stroke-dasharray="0.5 1" stroke-width=".5" d="M644.976 104c0 48.325-39.175 87.5-87.5 87.5s-87.5-39.175-87.5-87.5 39.175-87.5 87.5-87.5 87.5 39.175 87.5 87.5Z"/><path stroke="url(#g)" stroke-dasharray="0.5 1" stroke-width=".5" d="M657.944 104c0 55.487-44.981 100.468-100.468 100.468S457.007 159.487 457.007 104 501.988 3.532 557.476 3.532 657.944 48.512 657.944 104Z"/><path stroke="url(#h)" stroke-dasharray="0.5 1" stroke-width=".5" d="M671.369 104c0 62.901-50.992 113.893-113.893 113.893S443.583 166.901 443.583 104 494.574-9.893 557.476-9.893 671.369 41.099 671.369 104Z"/><path stroke="url(#i)" stroke-dasharray="0.5 1" stroke-width=".5" d="M685.708 104c0 70.821-57.411 128.233-128.232 128.233S429.243 174.821 429.243 104 486.655-24.233 557.476-24.233 685.708 33.18 685.708 104Z"/><path stroke="url(#j)" stroke-dasharray="0.5 1" stroke-width=".5" d="M700.354 104c0 78.909-63.969 142.878-142.878 142.878-78.91 0-142.878-63.969-142.878-142.878 0-78.91 63.968-142.878 142.878-142.878S700.354 25.091 700.354 104Z"/><path stroke="url(#k)" stroke-dasharray="0.5 1" stroke-width=".5" d="M714.389 104c0 86.661-70.253 156.913-156.913 156.913S400.562 190.661 400.562 104c0-86.66 70.253-156.913 156.914-156.913S714.389 17.339 714.389 104Z"/><path stroke="url(#l)" stroke-dasharray="0.5 1" stroke-width=".5" d="M730.56 104c0 95.592-77.493 173.084-173.084 173.084S384.392 199.592 384.392 104 461.884-69.084 557.476-69.084C653.067-69.084 730.56 8.408 730.56 104Z"/><path stroke="url(#m)" stroke-dasharray="0.5 1" stroke-width=".5" d="M746.425 104c0 104.354-84.596 188.949-188.949 188.949S368.526 208.354 368.526 104s84.596-188.95 188.95-188.95S746.425-.353 746.425 104Z"/><path stroke="url(#n)" stroke-dasharray="0.5 1" stroke-width=".5" d="M762.727 104c0 113.357-91.894 205.251-205.251 205.251S352.225 217.357 352.225 104s91.894-205.251 205.251-205.251S762.727-9.357 762.727 104Z"/><path stroke="url(#o)" stroke-dasharray="0.5 1" stroke-width=".5" d="M780.292 104c0 123.058-99.758 222.816-222.816 222.816S334.659 227.058 334.659 104s99.758-222.816 222.817-222.816c123.058 0 222.816 99.758 222.816 222.816Z"/><path stroke="url(#p)" stroke-dasharray="0.5 1" stroke-width=".5" d="M798.711 104c0 133.231-108.005 241.236-241.235 241.236S316.24 237.231 316.24 104c0-133.23 108.005-241.236 241.236-241.236 133.23 0 241.235 108.005 241.235 241.236Z"/><path stroke="url(#q)" stroke-dasharray="0.5 1" stroke-width=".5" d="M814.685 104c0 142.053-115.157 257.209-257.209 257.209S300.266 246.053 300.266 104s115.157-257.209 257.21-257.209c142.052 0 257.209 115.156 257.209 257.209Z"/><rect width="67.549" height="67.549" x="523.701" y="70.226" fill="#fcfcfc" stroke="#dfdfdf" stroke-width=".5" rx="33.774"/><circle cx="557.5" cy="104" r="19.804" fill="#b2b2b2"/><circle cx="557.476" cy="104" r="15.25" fill="#525252"/><path fill="#ededed" fill-rule="evenodd" d="M576.7 104c0 10.604-8.596 19.2-19.2 19.2s-19.2-8.596-19.2-19.2 8.596-19.2 19.2-19.2 19.2 8.596 19.2 19.2m-14.4-7.2a4.8 4.8 0 1 1-9.6 0 4.8 4.8 0 0 1 9.6 0m-4.8 9.6c-4.842 0-9.014 2.868-10.911 6.998A14.37 14.37 0 0 0 557.5 118.4c4.362 0 8.27-1.939 10.911-5.002-1.897-4.13-6.069-6.998-10.911-6.998" clip-rule="evenodd"/><rect width="136" height="33.2" x="569.25" y="64.179" fill="#fcfcfc" stroke="#b2b2b2" stroke-width=".5" rx="5.75"/><path fill="#171717" d="M584.284 82.953q-1.071 0-1.52-.48-.432-.48-.432-1.184v-.448q0-.704.432-1.184.449-.48 1.52-.48 1.072 0 1.504.48.448.48.448 1.184v.448q0 .704-.448 1.184-.432.48-1.504.48m10.594 0q-1.072 0-1.52-.48-.432-.48-.432-1.184v-.448q0-.704.432-1.184.448-.48 1.52-.48t1.504.48q.448.48.448 1.184v.448q0 .704-.448 1.184-.432.48-1.504.48m10.594 0q-1.072 0-1.52-.48-.432-.48-.432-1.184v-.448q0-.704.432-1.184.448-.48 1.52-.48t1.504.48q.448.48.448 1.184v.448q0 .704-.448 1.184-.432.48-1.504.48m10.594 0q-1.073 0-1.52-.48-.432-.48-.432-1.184v-.448q0-.704.432-1.184.447-.48 1.52-.48t1.504.48q.447.48.448 1.184v.448q0 .704-.448 1.184-.433.48-1.504.48m10.593 0q-1.071 0-1.52-.48-.432-.48-.432-1.184v-.448q0-.704.432-1.184.449-.48 1.52-.48 1.072 0 1.504.48.448.48.448 1.184v.448q0 .704-.448 1.184-.432.48-1.504.48m10.594 0q-1.072 0-1.52-.48-.432-.48-.432-1.184v-.448q0-.704.432-1.184.448-.48 1.52-.48t1.504.48q.448.48.448 1.184v.448q0 .704-.448 1.184-.432.48-1.504.48m10.594 0q-1.072 0-1.52-.48-.432-.48-.432-1.184v-.448q0-.704.432-1.184.448-.48 1.52-.48t1.504.48q.448.48.448 1.184v.448q0 .704-.448 1.184-.432.48-1.504.48m10.594 0q-1.073 0-1.52-.48-.432-.48-.432-1.184v-.448q0-.704.432-1.184.447-.48 1.52-.48t1.504.48q.447.48.448 1.184v.448q0 .704-.448 1.184-.433.48-1.504.48m10.593 0q-1.071 0-1.52-.48-.432-.48-.432-1.184v-.448q0-.704.432-1.184.449-.48 1.52-.48 1.072 0 1.504.48.448.48.448 1.184v.448q0 .704-.448 1.184-.432.48-1.504.48m10.594 0q-1.072 0-1.52-.48-.432-.48-.432-1.184v-.448q0-.704.432-1.184.448-.48 1.52-.48t1.504.48q.448.48.448 1.184v.448q0 .704-.448 1.184-.432.48-1.504.48m10.594 0q-1.072 0-1.52-.48-.432-.48-.432-1.184v-.448q0-.704.432-1.184.448-.48 1.52-.48t1.504.48q.448.48.448 1.184v.448q0 .704-.448 1.184-.432.48-1.504.48"/></g><defs><linearGradient id="b" x1="626.508" x2="444.463" y1="24.098" y2="24.098" gradientUnits="userSpaceOnUse"><stop stop-color="#575e61"/><stop offset="1" stop-color="#575e61" stop-opacity="0"/></linearGradient><linearGradient id="c" x1="626.508" x2="444.463" y1="24.098" y2="24.098" gradientUnits="userSpaceOnUse"><stop stop-color="#575e61"/><stop offset="1" stop-color="#575e61" stop-opacity="0"/></linearGradient><linearGradient id="d" x1="626.508" x2="444.463" y1="24.098" y2="24.098" gradientUnits="userSpaceOnUse"><stop stop-color="#575e61"/><stop offset="1" stop-color="#575e61" stop-opacity="0"/></linearGradient><linearGradient id="e" x1="626.508" x2="444.463" y1="24.098" y2="24.098" gradientUnits="userSpaceOnUse"><stop stop-color="#575e61"/><stop offset="1" stop-color="#575e61" stop-opacity="0"/></linearGradient><linearGradient id="f" x1="626.508" x2="444.463" y1="24.098" y2="24.098" gradientUnits="userSpaceOnUse"><stop stop-color="#575e61"/><stop offset="1" stop-color="#575e61" stop-opacity="0"/></linearGradient><linearGradient id="g" x1="626.508" x2="444.463" y1="24.098" y2="24.098" gradientUnits="userSpaceOnUse"><stop stop-color="#575e61"/><stop offset="1" stop-color="#575e61" stop-opacity="0"/></linearGradient><linearGradient id="h" x1="626.508" x2="444.463" y1="24.098" y2="24.098" gradientUnits="userSpaceOnUse"><stop stop-color="#575e61"/><stop offset="1" stop-color="#575e61" stop-opacity="0"/></linearGradient><linearGradient id="i" x1="626.508" x2="444.463" y1="24.098" y2="24.098" gradientUnits="userSpaceOnUse"><stop stop-color="#575e61"/><stop offset="1" stop-color="#575e61" stop-opacity="0"/></linearGradient><linearGradient id="j" x1="626.508" x2="444.463" y1="24.098" y2="24.098" gradientUnits="userSpaceOnUse"><stop stop-color="#575e61"/><stop offset="1" stop-color="#575e61" stop-opacity="0"/></linearGradient><linearGradient id="k" x1="626.508" x2="444.463" y1="24.098" y2="24.098" gradientUnits="userSpaceOnUse"><stop stop-color="#575e61"/><stop offset="1" stop-color="#575e61" stop-opacity="0"/></linearGradient><linearGradient id="l" x1="626.508" x2="444.463" y1="24.098" y2="24.098" gradientUnits="userSpaceOnUse"><stop stop-color="#575e61"/><stop offset="1" stop-color="#575e61" stop-opacity="0"/></linearGradient><linearGradient id="m" x1="626.508" x2="444.463" y1="24.098" y2="24.098" gradientUnits="userSpaceOnUse"><stop stop-color="#575e61"/><stop offset="1" stop-color="#575e61" stop-opacity="0"/></linearGradient><linearGradient id="n" x1="626.508" x2="444.463" y1="24.098" y2="24.098" gradientUnits="userSpaceOnUse"><stop stop-color="#575e61"/><stop offset="1" stop-color="#575e61" stop-opacity="0"/></linearGradient><linearGradient id="o" x1="626.508" x2="444.463" y1="24.098" y2="24.098" gradientUnits="userSpaceOnUse"><stop stop-color="#575e61"/><stop offset="1" stop-color="#575e61" stop-opacity="0"/></linearGradient><linearGradient id="p" x1="626.508" x2="444.463" y1="24.098" y2="24.098" gradientUnits="userSpaceOnUse"><stop stop-color="#575e61"/><stop offset="1" stop-color="#575e61" stop-opacity="0"/></linearGradient><linearGradient id="q" x1="626.508" x2="444.463" y1="24.098" y2="24.098" gradientUnits="userSpaceOnUse"><stop stop-color="#575e61"/><stop offset="1" stop-color="#575e61" stop-opacity="0"/></linearGradient><clipPath id="a"><path fill="#fff" d="M0 0h764v208H0z"/></clipPath></defs></svg>
